rusokon/images/icon-feat-12.svg

<svg xmlns="http://www.w3.org/2000/svg" width="52" height="52" viewBox="0 0 52 52"><defs><style>.cls-1{fill:none;stroke:#9e9e9e;}.cls-1,.cls-2{stroke-miterlimit:10;}.cls-2{fill:#ff1a46;stroke:#ff1a46;stroke-width:0.5px;}</style></defs><title>icon-feat-12</title><path class="cls-1" d="M.5.5h50v50h-50z"/><path class="cls-2" d="M43 19.5a6.59 6.59 0 0 1-6.6 6.6h-27.8a.6.6 0 1 1 0-1.2h27.8a5.4 5.4 0 1 0 0-10.8 5.46 5.46 0 0 0-5.5 5.4.6.6 0 0 1-1.2 0 6.65 6.65 0 0 1 13.3 0zm-34.4.6h14.5a4.8 4.8 0 0 0 4.8-4.8 4.8 4.8 0 1 0-9.6 0 .6.6 0 1 0 1.2 0 3.6 3.6 0 1 1 3.6 3.6h-14.5a.6.6 0 1 0 0 1.2zm21.7 10.8h-21.7a.6.6 0 1 0 0 1.2h21.7a3.6 3.6 0 1 1-3.6 3.6.6.6 0 0 0-1.2 0 4.8 4.8 0 0 0 4.8 4.8 4.87 4.87 0 0 0 4.8-4.8 4.8 4.8 0 0 0-4.8-4.8z"/></svg>

<svg id="Layer_1" data-name="Layer 1" xmlns="http://www.w3.org/2000/svg" width="52px" height="52px" viewBox="0 0 52 52"><defs><style>.cls-1{fill:none;stroke:#9e9e9e;}.cls-1,.cls-2{stroke-miterlimit:10;}.cls-2{fill:#ff1a46;stroke:#ff1a46;stroke-width:0.5px;}</style></defs><title>icon-feat-12</title><rect class="cls-1" x="0.5" y="0.5" width="50" height="50"/><path class="cls-2" d="M43,19.5a6.59,6.59,0,0,1-6.6,6.6H8.6a.6.6,0,1,1,0-1.2H36.4a5.4,5.4,0,1,0,0-10.8,5.46,5.46,0,0,0-5.5,5.4.6.6,0,0,1-1.2,0,6.65,6.65,0,0,1,13.3,0Zm-34.4.6H23.1a4.8,4.8,0,0,0,4.8-4.8,4.8,4.8,0,1,0-9.6,0,.6.6,0,1,0,1.2,0,3.6,3.6,0,1,1,3.6,3.6H8.6a.6.6,0,1,0,0,1.2ZM30.3,30.9H8.6a.6.6,0,1,0,0,1.2H30.3a3.6,3.6,0,1,1-3.6,3.6.6.6,0,0,0-1.2,0,4.8,4.8,0,0,0,4.8,4.8,4.87,4.87,0,0,0,4.8-4.8A4.8,4.8,0,0,0,30.3,30.9Z"/></svg>
